X:135
T:Irish half Pay. JJo6.141, The
B:J.Johnson Choice Collection Vol 6, 1751
Z:vmp.Steve Mansfield 2015 www.village-music-project.org.uk
M:6/8
L:1/8
Q:3/8=120
K:C
e2f efg | egB c3 | A2G Ac2 | A2G Ac2 |
e2f efg | egB c3 | A2G AcG | Ac2 c3 :|
|:e2g e2g | cdc d3 | e2g e2g | GAG c3 |
e2g e2g | AGF a3 | g2e ced | cAc c3 :|

